X:1
T:Hymn to Indra
T:Gustav Holst (1874-1934) Op.26
T:Hymn to Indra
C:Gustav Holst (1874-1934)
C:Op.26
%%score [ ( 1 2 ) ( 3 4 ) ] { ( 5 7 ) | 6 }
L:1/8
Q:1/4=84
M:4/4
K:Eb
V:1 treble-8 transpose=-12 nm="Tenor" snm="T."
V:2 treble-8 transpose=-12 
V:3 bass nm="Bass" snm="B."
V:4 bass 
V:5 treble nm="Piano" snm="Pno."
V:7 treble 
V:6 bass 
V:1
"^Allegro moderato" z8 |!mf! e>e _c_d ee c2 | [eg]>[eg] =ee (([_eg]2 =e2)) | _e>e _c_d ee G2 | %4
w: |Who is he of lof- ty pow'r,|Guar- dian of the Gods? *|Who sup- ports the heavn's a- lone?|
!<(!!<(! G>G (=E/G/)!<)!!<)!=B!f! _e2 e z |!mf! c>c A_B cc A2 | G>G FA G2 F2 | c>c AB cc A2 | %8
w: He O * men is In- dra!|When the moun- tains shake with fear,|When the earth is quak- ing,|Who is he that holds all fast?|
 x6!f!!<)!!<(! d x | z8 | z8 | z8 | z8 |!f!!f! ee/e/ c/e/c =BB G2 | ee/e/ c/e/c =BB G2 | %15
w: |||||Who was the he- ro that heard our pray'rs?|Who was the war- ri- or thun- der armed?|
"^accel cresc." g2 e2 d2 =B2 | g2 G4 =B2 | g4 G2!ff!!ff! z2 |"^Più mosso" =B2 c2 e2 c2 | %19
w: He O men is|In- dra! is|In- dra.|Who rush'd to the|
 =B_B G2 =B_B G2 | =B2 c2 e2 c2 | =B_B G2 =B_B G2 | e2 =e2 g2 e2 | _ed =B2 ed B2 | e2 =e2 g2 e2 | %25
w: bat- tle field, wrath- ful- ly?|Who with fierce re-|sist- less might charged the foe?|Who was he who|smote the fiend down to earth|Who with one blow|
 ^f4 =B2 z2 | z2 =B4 B2 | (G=B) e2 g4- | g2 G2 z4 |!mf!"^Tempo I." e>e _c_d ee c2 | %30
w: slew him?|He O|men _ is In-|* dra!|Who re- leased the cap- tive clouds.|
 [eg]>[eg] =ee [_eg]2 =e2 | _e>e _c_d ee G2 |!<(! G>G (=E/G/)!<)!=B!f! _e2 e z | %33
w: Gave the dry land show- ers,|Made the riv- ers free- ly flow?|He O men _ is In- dra!|
!mf! c>c A_B cc A2 | G>G FA G2 F2 | c>c AB cc A2 |!<(!!<(! G>G (F/A/)c!<)!!<)!!f! f2 e!ff! z | %37
w: Who is he, the gen- 'rous one|Who to those that wor- ship|Giv- eth strength and vic- to- ry?|He O men _ is In- dra!|
"^Più mosso" d2 e2 _g2 e2 | d_d B2 =d_d B2 | =d2 e2 _g2 e2 | d_d B2 =d_d B2 | %41
w: Who is he whose|name we call in the fight?|Who doth make his|wor- ship- pers con- quer- ors?|
"^accel." g>g (=e/g/)e gg e2 | gg (=e/g/)e gg e2 | gg (=e/g/)e gg e2 | z2!fff! _e6- | %45
w: He the Bull, _ the Migh- ty One,|Fierce and true, _ the Thun- der arm'd,|Lord of heav'n * and Chief of Gods,|He|
 e2 e2 (=B=e) g2 | [g_b]8- | [gb]2 e2 z4 |] %48
w: _ O men _ is|In-|* dra!|
V:2
 x8 | x8 | x2 =ee x2 e2 | x8 | x8 | x8 | x8 | x8 | G>G (F/A/)c [c=e]2 d z | x8 | x8 | x8 | x8 | %13
w: ||||||||He O men _ is In- dra!|||||
 x8 | x8 | x8 | x8 | x8 | x8 | x8 | x8 | x8 | x8 | x8 | x8 | x8 | x8 | x8 | x8 | x8 | x2 =ee x4 | %31
w: ||||||||||||||||||
 x8 | x8 | x8 | x8 | x8 | x8 | x8 | x8 | x8 | x8 | x8 | x8 | x8 | x8 | x8 | x8 | x8 |] %48
w: |||||||||||||||||
V:3
 z8 |!mf! [G,B,]>[G,B,] [G,_C][G,C] [G,B,][G,B,] [G,C]2 | [G,B,]>[G,B,] [G,=B,][G,B,] (_B,2 =B,2) | %3
w: |Who is he of lof- ty pow'r,|Guar- dian of the Gods? _|
 [G,_B,]>[G,B,] [G,_C][G,C] [G,B,][G,B,] G,2 | G,>G, (=E,/G,/)=B,!f! _E2 E z | %5
w: Who sup- ports the heavn's a- lone?|He O men * is In- dra!|
!mf! [_E,A,]>[E,A,] [_F,A,][F,A,] [E,A,][E,A,] [F,A,]2 | [=E,G,]>[E,G,] F,F, [E,G,]2 F,2 | %7
w: When the moun- tains shake with fear,|When the * * * *|
 [_E,A,]>[E,A,] [_F,A,][F,A,] [E,A,][E,A,] [F,A,]2 | %8
w: Who is he that holds all fast?|
!<(! [=E,G,]>[E,G,] (=F,/A,/)C!<)!!f! [F,A,]2 [F,A,] z |!p! G,2 A,2 =B,2 A,>A, | %10
w: He O men _ is In- dra!|When the drag- on of|
 G,_G, E,>E, =G,_G, E,2 | =G,2 A,2 =B,2 C2 | ED =B,2 ED B,2 | EE/E/ C/E/C =B,B, G,2 | %14
w: drought had seized the cloud sand rain|Like to kine he|ga- ther'd them to his cave.|Who was the he- ro that heard our pray'rs?|
 EE/E/ C/E/C =B,B, G,2 |"^accel cresc." z8 | G,2 E2 D2 G,2 | =B,4 G,2 z2 | =B,2 C2 E2 C2 | %19
w: Who was the war- ri- or thun- der armed?||He O men is|In- dra!|Who rush'd to the-|
 =B,_B, G,2 =B,_B, G,2 | =B,2 C2 E2 C2 | =B,_B, G,2 =B,_B, G,2 | =B,2 C2 G,2 C2 | ED =B,2 ED B,2 | %24
w: bat- tle field, wrath- ful- ly?|Who with fierce re-|sist- less might charged the foe?|Who was he who|smote the fiend down to earth|
 =B,2 C2 G,2 C2 | =B,4 B,2 z2 | z2 =B,4 B,2 | (G,=B,) E2 B,4- | B,2 G,2 z4 | %29
w: Who with one blow|slew him?|He O|men _ is In-|* dra!|
!mf! [G,_B,]>[G,B,] [G,_C][G,C] [G,B,][G,B,] [G,C]2 | %30
w: Who re- leased the- cap- tive clouds|
 [G,B,]>[G,B,] [G,=B,][G,B,] [G,_B,]2 [G,=B,]2 | [G,_B,]>[G,B,] [G,_C][G,C] [G,B,][G,B,] G,2 | %32
w: Gave the dry land show- ers,|Made the riv- ers free- ly flow?|
!<(! G,>G, (=E,/G,/)!<)!=B,!f! _E2 E z |!mf! [_E,A,]>[E,A,] [_F,A,][F,A,] [E,A,][E,A,] A,2 | %34
w: He O men _ is In- dra!|Who is he, the gen- 'rous *|
 x2 =F,F, x2 F,2 | [_E,A,]>[E,A,] [_F,A,][F,A,] [E,A,][E,A,] [F,A,]2 | %36
w: |Giv- eth strength and vic- to- ry?|
 [=E,G,]>[E,G,] (=F,/A,/)[F,C] [_G,_C]2 [G,C]!ff! z | _C2 C2 _E2 C2 | B,_D B,2 B,D B,2 | %39
w: He O men _ is In- dra!|Who is he whose|name we call in the fight?|
 _C2 C2 E2 C2 | B,_D B,2 B,D B,2 |"^accel." _CB, G,>G, CB, G,2 | _CB, G,>G, CB, G,2 | %43
w: Who doth make his|wor- ship- pers con- quer- ors?|He the Bull, the Migh- ty One,|Fierce and true, the Thun- der arm'd,|
 =CB, G,>G, CB, G,2 |!fff! z2 E6- | E2 E2 (=B,=E) E2 | _E8- | E2 E,2 z4 |] %48
w: Lord of heav'n and Chief of Gods,|He|_ O men _ is|In-|* dra!|
V:4
 x8 | x8 | x4 G,4 | x6 G,2 | x8 | x8 | x2 F,F, x2 F,2 | x8 | x8 | x8 | x8 | x8 | x8 | x8 | x8 | %15
w: ||||||earth is quak-|||||||||
 x8 | x8 | x8 | x8 | x8 | x8 | x8 | x8 | x8 | x8 | x8 | x8 | x8 | x8 | x8 | x8 | x8 | x8 | %33
w: ||||||||||||||||||
 x6 _F,2 | [=E,G,]>[E,G,] F,F, [E,G,]2 F,2 | x8 | x8 | x8 | x8 | x8 | x8 | x8 | x8 | x8 | x8 | x8 | %46
w: one|Who to those that wor- ship||||||||||||
 x8 | x8 |] %48
w: ||
V:5
"^Allegro moderato" z8 |!mf! [G,B,E]>[G,B,E] [G,_C][F,C_D] [G,B,E][G,B,E] [G,C]2 | %2
 [B,EG]>[B,EG] [=B,=E]/G/[B,E] ([_B,_EG]2 [G,=B,=E]2) | %3
 [G,_B,_E]>[G,B,E] [F,_C][G,C_D] [G,B,E][F,B,E][K:bass] [=E,G,]2 | %4
!<(! [_E,G,]>[E,G,] =E,/G,/[G,=B,]!<)!!f! [_E,G,B,_E]3 z | %5
!mf! [E,A,C]>[E,A,C] [_F,A,][F,A,_B,] [E,A,C][E,A,C] [F,A,]2 | %6
 [=E,G,]>[E,G,] =F,[F,A,] [E,G,]2 F,2 | [_E,A,C]>[E,A,C] [_F,A,][F,A,B,] [E,A,C][E,A,C] [F,A,]2 | %8
!<(! [=E,G,]>[E,G,] =F,/A,/[F,A,C]!<)!!f! [F,A,C=E]2 [F,A,D] z | %9
!p! [=B,,D,G,]2 [C,_E,A,]2 [D,G,=B,]2 [C,E,A,]2 | [_C,E,G,]_G, [C,E,]2 [C,E,=G,]_G, [C,E,]2 | %11
 [=B,,D,=G,]2 [=C,E,A,]2 [D,G,=B,]2 [F,A,=C]2 | [G,=B,E]D [G,B,]2 [G,B,E]D [G,B,]2 | %13
!f! [_G_ce][Gce]/[Gce]/ [E=G=c]/e/[EGc] [DG=B][DGB] [EG]2 | %14
 [_G_ce][Gce]/[Gce]/ [E=G=c]/e/[EGc] [DG=B][DGB] [EG]2 | [G=B=g]2 [GBe]2 [GBd]2 [GB]2 | %16
 [G,=B,G]2 [G,B,E]2 [G,B,D]2 [G,B,]2 |!ff! [d=b]g ed [D=B]G ED | %18
!ff!"^Più mosso" =B,2 [A,C]2 E2 C2 | =B,_B, G,2 =B,_B, !>![G,D]2 | =B,2 C2 E2 C2 | %21
 =B,_B, G,2 =B,_B, !>![G,D]2 | [=B,E]2 [C=E]2 [G,G]2 [CE]2 | _ED =B,2 ED !>![B,^F]2 | %24
 [=B,E]2 [C=E]2 [G,G]2 [CE]2 | _ED !>!=B,2 ED !>![B,^F]2 | (ED) [^F,=B,]2 (ED) [F,B,]2 | %27
 (ED) [G,=B,]2 (ED) [G,B,]2 | (ED) [G,=B,]2 (ED) [G,B,]2 | %29
"^Tempo I." [G,_B,_E]>[G,B,E] [G,_C][G,C_D] [G,B,E][G,B,E] [G,C]2 | %30
 [B,EG]>[B,EG] [=B,=E]/G/[B,E] [_B,_EG]2 [G,=B,=E]2 | %31
 [G,_B,_E]>[G,B,E] [G,_C][G,C_D] [G,B,E][G,B,E] [=E,G,]2 | %32
!<(! [_E,G,]>[E,G,] =E,/G,/!<)![G,=B,]!f! [_E,G,_B,_E]3 z | %33
!mf! [E,A,C]>[E,A,C] [_F,A,][F,A,B,] [E,A,C][E,A,C] [F,A,]2 | %34
 [=E,G,]>[E,G,] =F,[F,A,] [E,G,]2 F,2 | [_E,A,C]>[E,A,C] [_F,A,][F,A,B,] [E,A,C][E,A,C] [F,A,]2 | %36
!<(! [=E,G,]>[E,G,] =F,/!<)!A,/!f![F,A,C][K:treble] [_G,_C=F]2 [G,C_E] z | %37
!ff!"^Più mosso" [_CD]2 [CE]2 [E_G]2 [CE]2 | [B,D]_D B,2 [B,=D]_D !>![B,F]2 | %39
 [_C=D]2 [CE]2 [E_G]2 [CE]2 | [B,D]_D B,2 [B,=D]_D !>![B,F]2 |"^accel." G>G =E/G/E G2 E2 | %42
 GG =E/G/E GG E2 | GG =E/G/E GG E2 |!fff! z2 _E6- | E2 E2 (=B,=E) [EG]2 | [_EG_B]2 E,B, EBeb | %47
 [ee']2 .[G,B,E]2 z4 |] %48
V:6
 [E,,,E,,][G,,,G,,][=E,,,=E,,][G,,,G,,] [_E,,,_E,,][G,,,G,,][=E,,,=E,,][G,,,G,,] | %1
 [_E,,,_E,,][G,,,G,,][_F,,,_F,,][G,,,G,,] [E,,,E,,][G,,,G,,][F,,,F,,][G,,,G,,] | %2
 [E,,,E,,][G,,,G,,][E,,,=E,,][G,,,G,,] [E,,,_E,,][G,,,G,,][=E,,,=E,,][G,,,G,,] | %3
 [_E,,,_E,,][G,,,G,,][_F,,,_F,,][G,,,G,,] [E,,,E,,][G,,,G,,][=E,,,=E,,][G,,,G,,] | %4
 [_E,,,_E,,].[G,,,G,,][=E,,,=E,,][G,,,G,,] [_E,,,_E,,][G,,,G,,][E,,,E,,][G,,,G,,] | %5
 [A,,,A,,][C,,C,][_F,,,_F,,][_G,,,_G,,] [A,,,A,,][C,,C,][F,,,F,,][G,,,G,,] | %6
 [A,,,A,,][C,,C,][A,,,A,,][C,,C,] [A,,,A,,][C,,C,][A,,,A,,][C,,C,] | %7
 [A,,,A,,][C,,C,][_F,,,_F,,][_G,,,_G,,] [A,,,A,,][C,,C,][F,,,F,,][G,,,G,,] | %8
 [A,,,A,,][C,,C,][A,,,A,,][C,,C,] [A,,,A,,]D,,=F,,A,, | %9
 [F,,,F,,][G,,,G,,][F,,,F,,][G,,,G,,] [F,,,F,,][G,,,G,,][F,,,F,,][G,,,G,,] | %10
 [A,,,A,,][_C,,_C,][A,,,A,,][C,,C,] [A,,,A,,][C,,C,][A,,,A,,][C,,C,] | %11
 [F,,,F,,][G,,,G,,][F,,,F,,][G,,,G,,] [F,,,F,,][G,,,G,,][F,,,F,,][G,,,G,,] | %12
 [F,,,F,,][G,,,G,,][F,,,F,,][G,,,G,,] [F,,,F,,][G,,,G,,][F,,,F,,][G,,,G,,] | %13
 [_C,,_C,][E,,E,][=C,,=C,][E,,E,] G,,=B,,E,G, | [_C,,_C,][E,,E,][=C,,=C,][E,,E,] G,,=B,,E,G, | %15
 G,,=B,,E,G, G,,B,,E,G, | G,,,=B,,,E,,G,, G,,,B,,,E,,G,, | G,,,=B,,,E,,G,, G,,,B,,,E,,G,, | %18
 z2 [A,,,E,,A,,]2 z2 [A,,E,A,]2 | z2 !>![G,,,D,,]2 !>![G,,D,]2 z2 | %20
 z2 [A,,,E,,A,,]2 z2 [A,,E,A,]2 | z2 !>![G,,,D,,]2 !>![G,,D,]2 z2 | z2 [C,,G,,C,]2 z2 [C,G,]2 | %23
 z2 !>![=B,,,^F,,]2 !>![=B,,^F,]2 z2 | z2 [C,,G,,C,]2 z2 [C,G,]2 | %25
 z2 !>![=B,,,^F,,]2 !>![=B,,^F,]2 z2 | z2 [=A,,,=A,,]2 z2 [A,,=A,]2 | z2 [G,,,G,,]2 z2 G,,2 | %28
 z2 [F,,,F,,]2 z2 [F,,F,]2 | %29
 [E,,,E,,][G,,,G,,][_F,,,_F,,][G,,,G,,] [E,,,E,,][G,,,G,,][F,,,F,,][G,,,G,,] | %30
 [E,,,E,,][G,,,G,,][=E,,,=E,,][G,,,G,,] [_E,,,_E,,][G,,,G,,][=E,,,=E,,][G,,,G,,] | %31
 [E,,,E,,][G,,,G,,][_F,,,_F,,][G,,,G,,] [E,,,E,,][G,,,G,,][=E,,,=E,,][G,,,G,,] | %32
 [_E,,,_E,,][G,,,G,,][=E,,,=E,,][G,,,G,,] [_E,,,_E,,][G,,,G,,][E,,,E,,][G,,,G,,] | %33
 [A,,,A,,][C,,C,][_F,,,_F,,][_G,,,_G,,] [A,,,A,,][C,,C,][F,,,F,,][G,,,G,,] | %34
 [A,,,A,,][C,,C,][A,,,A,,][C,,C,] [A,,,A,,][C,,C,][A,,,A,,][C,,C,] | %35
 [A,,,A,,][C,,C,][_F,,,_F,,][_G,,,_G,,] [A,,,A,,][C,,C,][F,,,F,,][G,,,G,,] | %36
 [A,,,A,,][C,,C,][A,,,A,,][C,,C,] [_C,,_C,][E,,E,][C,,C,][E,,E,] | z2 [_C,,_G,,_C,]2 z2 [C,_G,]2 | %38
 z2 !>![B,,,F,,]2 !>![B,,F,]2 z2 | z2 [_C,,_G,,]2 z2 [_C,_G,]2 | z2 !>![B,,,F,,]2 !>![B,,F,]2 z2 | %41
 [E,,,E,,][G,,,G,,][=E,,,=E,,][G,,,G,,] [_E,,,_E,,][F,,,G,,][=E,,,=E,,][G,,,G,,] | %42
 [_E,,,_E,,][G,,,G,,][=E,,,=E,,][G,,,G,,] [_E,,,_E,,][G,,,G,,][=E,,,=E,,][G,,,G,,] | %43
 [_E,,,_E,,][G,,,G,,][=E,,,=E,,][G,,,G,,] [_E,,,_E,,][G,,,G,,][=E,,,=E,,][G,,,G,,] | %44
 z2 [_E,,G,,B,,_E,]2 z4 | z4 [=E,,G,,=B,,=E,]2 z2 | z [_B,,,_B,,] E,,B,, E,B, z2 | %47
 z2 .[E,,B,,E,]2 z4 |] %48
V:7
 x8 | x8 | x8 | x6[K:bass] x2 | x8 | x8 | x8 | x8 | x8 | x8 | x8 | x8 | x8 | x8 | x8 | x8 | x8 | %17
 x8 | x8 | x8 | x8 | x8 | x8 | x8 | x8 | x8 | x8 | x8 | x8 | x8 | x8 | x8 | x8 | x8 | x8 | x8 | %36
 x4[K:treble] x4 | x8 | x8 | x8 | x8 | _CB, G,2 CB, G,2 | _CB, G,2 CB, G,2 | _CB, G,2 CB, G,2 | %44
 x2 [G,B,]2 x4 | x4 G,2 x2 | x6 _EB | x8 |] %48

